modules/themify-icons/icons/bookmark-alt.svg

<?xml version="1.0" encoding="utf-8"?>
<!-- Generated by IcoMoon.io -->
<!DOCTYPE svg PUBLIC "-//W3C//DTD SVG 1.1//EN" "http://www.w3.org/Graphics/SVG/1.1/DTD/svg11.dtd">
<svg version="1.1" xmlns="http://www.w3.org/2000/svg" xmlns:xlink="http://www.w3.org/1999/xlink" width="17" height="17" viewBox="0 0 17 17">
<g>
</g>
	<path d="M10.027 10.074v-10.074h-6.054v10.077l3.021-2.053 3.033 2.050zM4.973 8.188v-7.188h4.055v7.191l-2.037-1.376-2.018 1.373zM16 1.007v14.993h-15v-14.993h1.974v1h-0.974v12.993h13v-12.993h-4.005v-1h5.005z" fill="#000000" />
</svg>

<svg xmlns="http://www.w3.org/2000/svg" width="17" height="17"><path d="M10.027 10.074V0H3.973v10.077l3.021-2.053 3.033 2.05zM4.973 8.188V1h4.055v7.191L6.991 6.815 4.973 8.188zM16 1.007V16H1V1.007h1.974v1H2V15h13V2.007h-4.005v-1H16z"/></svg>
